static/assets/img/icons/theme/weather/night-fog.svg

<svg height="24" viewBox="0 0 24 24" width="24" xmlns="http://www.w3.org/2000/svg"><g fill="none" fill-rule="evenodd"><path d="m0 0h24v24h-24z" opacity="0"/><g fill="#000"><path d="m12.880982 3.00020666c-.4678939.80893006-.7356826 1.748089-.7356826 2.74979334 0 3.02148908 2.4364368 5.4739178 5.4518175 5.4997933-.9509465 1.6440678-2.7284557 2.7502067-4.7643175 2.7502067-3.0375661 0-5.49999998-2.4624339-5.49999998-5.5 0-3.03756612 2.46243388-5.5 5.49999998-5.5.0160771 0 .032138.00006898.0481826.00020666z"/><path d="m2.5 16h19c.2761424 0 .5.2238576.5.5s-.2238576.5-.5.5h-19c-.27614237 0-.5-.2238576-.5-.5s.22385763-.5.5-.5zm0 2h5c.27614237 0 .5.2238576.5.5s-.22385763.5-.5.5h-5c-.27614237 0-.5-.2238576-.5-.5s.22385763-.5.5-.5zm12 2h7c.2761424 0 .5.2238576.5.5s-.2238576.5-.5.5h-7c-.2761424 0-.5-.2238576-.5-.5s.2238576-.5.5-.5zm-5-2h12c.2761424 0 .5.2238576.5.5s-.2238576.5-.5.5h-12c-.27614237 0-.5-.2238576-.5-.5s.22385763-.5.5-.5zm-7 2h10c.2761424 0 .5.2238576.5.5s-.2238576.5-.5.5h-10c-.27614237 0-.5-.2238576-.5-.5s.22385763-.5.5-.5z" opacity=".3"/></g></g></svg>

<svg width="24px" height="24px" viewBox="0 0 24 24" version="1.1" xmlns="http://www.w3.org/2000/svg" xmlns:xlink="http://www.w3.org/1999/xlink">
    <title>Icon For Night-fog</title>
    <g stroke="none" stroke-width="1" fill="none" fill-rule="evenodd">
        <polygon points="0 0 24 0 24 24 0 24" opacity="0"></polygon>
        <path d="M12.880982,3.00020666 C12.4130881,3.80913672 12.1452994,4.74829566 12.1452994,5.75 C12.1452994,8.77148908 14.5817362,11.2239178 17.5971169,11.2497933 C16.6461704,12.8938611 14.8686612,14 12.8327994,14 C9.7952333,14 7.33279942,11.5375661 7.33279942,8.5 C7.33279942,5.46243388 9.7952333,3 12.8327994,3 C12.8488765,3 12.8649374,3.00006898 12.880982,3.00020666 Z" fill="#000000"></path>
        <path d="M2.5,16 L21.5,16 C21.7761424,16 22,16.2238576 22,16.5 C22,16.7761424 21.7761424,17 21.5,17 L2.5,17 C2.22385763,17 2,16.7761424 2,16.5 C2,16.2238576 2.22385763,16 2.5,16 Z M2.5,18 L7.5,18 C7.77614237,18 8,18.2238576 8,18.5 C8,18.7761424 7.77614237,19 7.5,19 L2.5,19 C2.22385763,19 2,18.7761424 2,18.5 C2,18.2238576 2.22385763,18 2.5,18 Z M14.5,20 L21.5,20 C21.7761424,20 22,20.2238576 22,20.5 C22,20.7761424 21.7761424,21 21.5,21 L14.5,21 C14.2238576,21 14,20.7761424 14,20.5 C14,20.2238576 14.2238576,20 14.5,20 Z M9.5,18 L21.5,18 C21.7761424,18 22,18.2238576 22,18.5 C22,18.7761424 21.7761424,19 21.5,19 L9.5,19 C9.22385763,19 9,18.7761424 9,18.5 C9,18.2238576 9.22385763,18 9.5,18 Z M2.5,20 L12.5,20 C12.7761424,20 13,20.2238576 13,20.5 C13,20.7761424 12.7761424,21 12.5,21 L2.5,21 C2.22385763,21 2,20.7761424 2,20.5 C2,20.2238576 2.22385763,20 2.5,20 Z" fill="#000000" opacity="0.3"></path>
    </g>
</svg>
